public/images/icon-fireplace--leaf.svg

<svg width="27" height="23" viewBox="0 0 27 23" fill="none" xmlns="http://www.w3.org/2000/svg">
<path d="M0 0H27V4.5H25.5V22.5H22.5V15C22.5 10.0312 18.4688 6 13.5 6C8.53125 6 4.5 10.0312 4.5 15V22.5H1.5V4.5H0V0ZM12.2812 9L14.7188 11.4375L15.9375 10.2188C18.8906 12.7031 19.6406 15.3281 19.6406 16.3594C19.6406 19.7344 16.875 22.5 13.5 22.5C10.125 22.5 7.35938 19.7344 7.35938 16.3594C7.35938 12.9375 10.6406 10.0312 12.2812 9ZM15.9375 18.2344C15.9375 16.3594 13.5 14.5312 13.5 14.5312C13.5 14.5312 11.0625 16.3594 11.0625 18.2344C11.0625 19.5469 12.1406 20.6719 13.5 20.6719C14.8594 20.6719 15.9375 19.5938 15.9375 18.2344Z" fill="#91C15D"/>
</svg>

<svg width="27" height="23" viewBox="0 0 27 23" fill="none" xmlns="http://www.w3.org/2000/svg"><path d="M0 0h27v4.5h-1.5v18h-3V15c0-4.969-4.031-9-9-9s-9 4.031-9 9v7.5h-3v-18H0V0Zm12.281 9 2.438 2.438 1.219-1.22c2.953 2.485 3.703 5.11 3.703 6.141 0 3.375-2.766 6.141-6.141 6.141s-6.14-2.766-6.14-6.14c0-3.422 3.28-6.329 4.921-7.36Zm3.656 9.234c0-1.875-2.437-3.703-2.437-3.703s-2.438 1.828-2.438 3.703c0 1.313 1.079 2.438 2.438 2.438a2.42 2.42 0 0 0 2.438-2.438Z" fill="#91C15D"/></svg>
